Newaita-dark/.DP/24/slack-indicator.svg

<svg xmlns="http://www.w3.org/2000/svg" xmlns:xlink="http://www.w3.org/1999/xlink" width="24px" height="24px" viewBox="0 0 24 24" version="1.1">
<g id="surface1">
<path style=" stroke:none;fill-rule:nonzero;fill:rgb(93.333334%,93.333334%,93.333334%);fill-opacity:1;" d="M 4.3125 6.742188 C 3.835938 7.015625 3.671875 7.621094 3.945312 8.097656 L 5.4375 10.675781 L 3.289062 11.914062 C 2.8125 12.191406 2.648438 12.796875 2.921875 13.273438 C 3.199219 13.75 3.804688 13.910156 4.28125 13.632812 L 6.429688 12.394531 L 8.90625 16.691406 L 6.757812 17.929688 C 6.28125 18.203125 6.125 18.8125 6.398438 19.289062 C 6.671875 19.761719 7.277344 19.921875 7.75 19.648438 L 9.898438 18.410156 L 10.890625 20.128906 C 11.167969 20.601562 11.773438 20.765625 12.25 20.492188 C 12.726562 20.21875 12.886719 19.609375 12.609375 19.136719 L 11.617188 17.417969 L 15.914062 14.9375 L 16.90625 16.65625 C 17.183594 17.132812 17.789062 17.292969 18.265625 17.015625 C 18.742188 16.742188 18.902344 16.140625 18.625 15.664062 L 17.632812 13.945312 L 19.78125 12.703125 C 20.257812 12.429688 20.421875 11.824219 20.148438 11.347656 C 19.871094 10.875 19.265625 10.710938 18.789062 10.984375 L 16.640625 12.226562 L 14.164062 7.929688 L 16.3125 6.6875 C 16.789062 6.414062 16.949219 5.808594 16.671875 5.332031 C 16.398438 4.859375 15.796875 4.695312 15.320312 4.96875 L 13.171875 6.210938 L 11.679688 3.632812 C 11.40625 3.15625 10.804688 2.992188 10.328125 3.269531 C 9.851562 3.542969 9.6875 4.148438 9.960938 4.625 L 11.453125 7.203125 L 7.15625 9.683594 L 5.664062 7.105469 C 5.390625 6.628906 4.789062 6.46875 4.3125 6.742188 Z M 8.148438 11.402344 L 12.445312 8.921875 L 14.921875 13.21875 L 10.625 15.699219 Z M 8.148438 11.402344 "/>
</g>
</svg>

<svg xmlns="http://www.w3.org/2000/svg" width="24" height="24"><path d="M4.309 6.742a.994.994 0 0 0-.364 1.356l1.493 2.578-2.149 1.238a.989.989 0 0 0-.363 1.356.987.987 0 0 0 1.355.363l2.149-1.238 2.48 4.296-2.148 1.239a.988.988 0 0 0-.364 1.355.987.987 0 0 0 1.356.363l2.148-1.238.993 1.719a.99.99 0 0 0 1.355.363.991.991 0 0 0 .363-1.355l-.992-1.719 4.297-2.48.992 1.718a.99.99 0 0 0 1.356.364.995.995 0 0 0 .363-1.356l-.992-1.719 2.148-1.242a.992.992 0 0 0-.992-1.719l-2.148 1.243L14.16 7.93l2.149-1.242a.987.987 0 0 0 .363-1.356.99.99 0 0 0-1.356-.363L13.168 6.21 11.68 3.633a.987.987 0 0 0-1.356-.363.994.994 0 0 0-.363 1.355l1.488 2.578-4.297 2.48-1.488-2.578a.99.99 0 0 0-1.355-.363zm3.84 4.66l4.292-2.48 2.485 4.297-4.297 2.48zm0 0" fill="#bdbdbd"/></svg>
